X: 1
T: Gan Ainm
M: 3/4
L: 1/8
R: mazurka
K: Dmaj
e2|:f2 agfe|d2 AdAd|e2 AcAe|f2 gfed|
f2 agfe|d2 AdAd|e2 Acec|d4:|
d2|e2 Acec|d2 dcBA|e2 Acec|d4 d2|
e2 Acec|d2 dcBA|e2 Acec|d4 e2|
